public/cloud-icons/azure/management/logz-metrics-data-source.svg

<svg xmlns="http://www.w3.org/2000/svg" xml:space="preserve" width="68.027" height="75.6" style="font-size:12px;overflow:visible;color-interpolation-filters:sRGB;fill-rule:evenodd;stroke-linecap:square;stroke-miterlimit:3" viewBox="0 0 51.02 56.7"><g transform="translate(-27.818 -27.814)"><title>Page-1</title><g transform="translate(27.818 -34.016)"><title>Logz metrics data source.13297</title><title>Sheet.13298</title><title>Sheet.13299</title><path d="m0 104.35 25.51 14.18 25.51-14.18V76L25.51 61.83 1.28 75.3a1.57 1.526-180 0 0-.8 1.32c0 .54.31 1.05.8 1.32l23.13 12.85v11.23L0 88.46Zm25.51 11.72L2.2 103.13v-11l10.41 5.78 12.82 7.22 13.44-7.47V82.72l-13.44-7.47-12.29 6.83-9.83-5.46 22.2-12.34 23.3 12.95v25.9zM15.34 83.3l10.17 5.65 10.09-5.6-10.17-5.65Zm21.33 1.9-10.05 5.59v11.23l10.05-5.58z" style="fill:#053447;stroke:none;stroke-width:27.81819916;stroke-linecap:butt"/></g></g></svg>

<?xml version="1.0" encoding="UTF-8" standalone="no"?>
<!-- Generated by Microsoft Visio, SVG Export Logz metrics data source.svg Page-1 -->

<svg
   xmlns:dc="http://purl.org/dc/elements/1.1/"
   xmlns:cc="http://creativecommons.org/ns#"
   xmlns:rdf="http://www.w3.org/1999/02/22-rdf-syntax-ns#"
   xmlns:svg="http://www.w3.org/2000/svg"
   xmlns="http://www.w3.org/2000/svg"
   xmlns:sodipodi="http://sodipodi.sourceforge.net/DTD/sodipodi-0.dtd"
   xmlns:inkscape="http://www.inkscape.org/namespaces/inkscape"
   width="0.70861173in"
   height="0.78750068in"
   viewBox="0 0 51.020006 56.699993"
   xml:space="preserve"
   class="st2"
   version="1.1"
   id="svg19"
   sodipodi:docname="Logz metrics data source.svg"
   style="font-size:12px;overflow:visible;color-interpolation-filters:sRGB;fill:none;fill-rule:evenodd;stroke-linecap:square;stroke-miterlimit:3"
   inkscape:version="0.92.5 (2060ec1f9f, 2020-04-08)"><metadata
   id="metadata25"><rdf:RDF><cc:Work
       rdf:about=""><dc:format>image/svg+xml</dc:format><dc:type
         rdf:resource="http://purl.org/dc/dcmitype/StillImage" /></cc:Work></rdf:RDF></metadata><defs
   id="defs23" /><sodipodi:namedview
   pagecolor="#ffffff"
   bordercolor="#666666"
   borderopacity="1"
   objecttolerance="10"
   gridtolerance="10"
   guidetolerance="10"
   inkscape:pageopacity="0"
   inkscape:pageshadow="2"
   inkscape:window-width="640"
   inkscape:window-height="480"
   id="namedview21"
   showgrid="false"
   inkscape:zoom="1.4933292"
   inkscape:cx="34.015754"
   inkscape:cy="33.667756"
   inkscape:window-x="0"
   inkscape:window-y="0"
   inkscape:window-maximized="0"
   inkscape:current-layer="svg19" />
	<style
   type="text/css"
   id="style2">
	<![CDATA[
		.st1 {fill:#053447;stroke:none;stroke-linecap:butt;stroke-width:27.8182}
		.st2 {fill:none;fill-rule:evenodd;font-size:12px;overflow:visible;stroke-linecap:square;stroke-miterlimit:3}
	]]>
	</style>

	<g
   id="g17"
   transform="translate(-27.8182,-27.8143)">
		<title
   id="title4">Page-1</title>
		<g
   id="group13297-1"
   transform="translate(27.8182,-34.0157)">
			<title
   id="title6">Logz metrics data source.13297</title>
			<g
   id="group13298-2">
				<title
   id="title8">Sheet.13298</title>
				<g
   id="shape13299-3">
					<title
   id="title10">Sheet.13299</title>
					<path
   d="m 0,104.35 25.51,14.18 25.51,-14.18 V 76 L 25.51,61.83 1.28,75.3 a 1.56974,1.52615 -180 0 0 -0.8,1.32 c 0,0.54 0.31,1.05 0.8,1.32 l 23.13,12.85 v 11.23 L 0,88.46 Z M 25.51,116.07 2.2,103.13 v -11 l 10.41,5.78 12.82,7.22 13.44,-7.47 V 82.72 L 25.43,75.25 13.14,82.08 3.31,76.62 25.51,64.28 48.81,77.23 v 25.9 z M 15.34,83.3 25.51,88.95 35.6,83.35 25.43,77.7 Z m 21.33,1.9 -10.05,5.59 v 11.23 l 10.05,-5.58 z"
   class="st1"
   id="path12"
   inkscape:connector-curvature="0"
   style="fill:#053447;stroke:none;stroke-width:27.81819916;stroke-linecap:butt" />
				</g>
			</g>
		</g>
	</g>
</svg>
